src/icons/solid/symbols/copy.svg

<svg width="24" height="24" viewBox="0 0 24 24" fill="none" xmlns="http://www.w3.org/2000/svg">
<g clip-path="url(#clip0_402_360)">
<path fill-rule="evenodd" clip-rule="evenodd" d="M6.37392 18.3646C6.37392 18.6104 6.27558 18.8462 6.10053 19.02C5.92549 19.1938 5.68807 19.2915 5.44052 19.2915H3.8668C3.3717 19.2915 2.89687 19.0962 2.54677 18.7485C2.19668 18.4008 2 17.9293 2 17.4377V15.8749C2 15.6291 2.09834 15.3933 2.27339 15.2195C2.44843 15.0457 2.68585 14.948 2.9334 14.948C3.18096 14.948 3.41837 15.0457 3.59342 15.2195C3.76846 15.3933 3.8668 15.6291 3.8668 15.8749V17.4377H5.44052C5.68807 17.4377 5.92549 17.5353 6.10053 17.7091C6.27558 17.883 6.37392 18.1187 6.37392 18.3646ZM2.9334 12.6354C2.68585 12.6354 2.44843 12.5377 2.27339 12.3639C2.09834 12.1901 2 11.9543 2 11.7085V8.58298C2 8.33715 2.09834 8.10139 2.27339 7.92756C2.44843 7.75373 2.68585 7.65608 2.9334 7.65608C3.18096 7.65608 3.41837 7.75373 3.59342 7.92756C3.76846 8.10139 3.8668 8.33715 3.8668 8.58298V11.7085C3.8668 11.9543 3.76846 12.1901 3.59342 12.3639C3.41837 12.5377 3.18096 12.6354 2.9334 12.6354ZM2.9334 5.34346C2.68585 5.34346 2.44843 5.2458 2.27339 5.07198C2.09834 4.89815 2 4.66239 2 4.41656V2.8538C2 2.36214 2.19668 1.89062 2.54677 1.54297C2.89687 1.19531 3.3717 1 3.8668 1H4.95235C5.1999 1 5.43732 1.09766 5.61236 1.27148C5.78741 1.44531 5.88575 1.68107 5.88575 1.9269C5.88575 2.17273 5.78741 2.40849 5.61236 2.58232C5.43732 2.75615 5.1999 2.8538 4.95235 2.8538H3.8668V4.41656C3.8668 4.66239 3.76846 4.89815 3.59342 5.07198C3.41837 5.2458 3.18096 5.34346 2.9334 5.34346ZM16.2801 4.83644C16.175 4.89907 16.0585 4.94053 15.9373 4.95844C15.816 4.97636 15.6924 4.97039 15.5735 4.94086C15.4546 4.91134 15.3427 4.85885 15.2442 4.78638C15.1457 4.71392 15.0626 4.62289 14.9995 4.51852L13.9933 2.8538H12.9087C12.6611 2.8538 12.4237 2.75615 12.2487 2.58232C12.0736 2.40849 11.9753 2.17273 11.9753 1.9269C11.9753 1.68107 12.0736 1.44531 12.2487 1.27148C12.4237 1.09766 12.6611 1 12.9087 1H13.9933C14.3158 0.999837 14.6329 1.08266 14.9136 1.24039C15.1943 1.39812 15.4291 1.62538 15.595 1.90002L16.6003 3.56566C16.6633 3.67004 16.7051 3.78573 16.7231 3.90613C16.7412 4.02653 16.7352 4.14927 16.7054 4.26736C16.6757 4.38545 16.6228 4.49657 16.5499 4.59437C16.4769 4.69217 16.3852 4.77382 16.2801 4.83644ZM10.9485 1.9269C10.9485 2.17273 10.8502 2.40849 10.6751 2.58232C10.5001 2.75615 10.2627 2.8538 10.0151 2.8538H7.8459C7.59834 2.8538 7.36093 2.75615 7.18588 2.58232C7.01083 2.40849 6.91249 2.17273 6.91249 1.9269C6.91249 1.68107 7.01083 1.44531 7.18588 1.27148C7.36093 1.09766 7.59834 1 7.8459 1H10.0161C10.2636 1 10.501 1.09766 10.6761 1.27148C10.8511 1.44531 10.9495 1.68107 10.9495 1.9269H10.9485ZM9.09852 5.85882C8.8463 5.85882 8.59656 5.90816 8.36355 6.00404C8.13054 6.09991 7.91884 6.24044 7.74054 6.41758C7.56224 6.59473 7.42083 6.80503 7.3244 7.03646C7.22796 7.26789 7.17839 7.51592 7.17851 7.76638V21.0934C7.17851 21.599 7.3808 22.084 7.74087 22.4416C8.10094 22.7991 8.5893 23 9.09852 23H19.4331C19.7702 23 20.104 22.9341 20.4154 22.806C20.7269 22.6779 21.0098 22.4901 21.2482 22.2534C21.4865 22.0167 21.6756 21.7357 21.8046 21.4265C21.9336 21.1172 22 20.7858 22 20.451V10.0846C21.9997 9.57918 21.7976 9.09453 21.4381 8.73684L19.1018 6.41681C18.7418 6.05953 18.2536 5.85883 17.7446 5.85882H9.09852Z" fill="#212121"/>
</g>
<defs>
<clipPath id="clip0_402_360">
<rect width="24" height="24" fill="white"/>
</clipPath>
</defs>
</svg>

<svg xmlns="http://www.w3.org/2000/svg" width="24" height="24" fill="none" viewBox="0 0 24 24"><g clip-path="url(#a)"><path fill="currentColor" fill-rule="evenodd" d="M6.374 18.365a.92.92 0 0 1-.273.655.94.94 0 0 1-.66.271H3.867c-.495 0-.97-.195-1.32-.543A1.85 1.85 0 0 1 2 17.439v-1.563a.92.92 0 0 1 .273-.655.937.937 0 0 1 1.32 0c.175.173.274.41.274.655v1.563H5.44a.925.925 0 0 1 .933.927m-3.44-5.73a.94.94 0 0 1-.66-.271.92.92 0 0 1-.274-.655V8.583a.92.92 0 0 1 .273-.655.937.937 0 0 1 1.32 0c.175.173.274.41.274.655v3.126a.92.92 0 0 1-.274.655.94.94 0 0 1-.66.271m0-7.292a.94.94 0 0 1-.66-.271A.92.92 0 0 1 2 4.417V2.854c0-.492.197-.963.547-1.311S3.372 1 3.867 1h1.085c.248 0 .485.098.66.271a.924.924 0 0 1 0 1.311.94.94 0 0 1-.66.272H3.867v1.563a.92.92 0 0 1-.274.655.94.94 0 0 1-.66.271m13.346-.507A.937.937 0 0 1 15 4.52l-1.007-1.665H12.91a.94.94 0 0 1-.66-.272.923.923 0 0 1 0-1.31.94.94 0 0 1 .66-.272h1.084a1.88 1.88 0 0 1 1.602.9L16.6 3.566a.923.923 0 0 1-.32 1.27m-5.332-2.91a.92.92 0 0 1-.273.656.94.94 0 0 1-.66.272h-2.17a.94.94 0 0 1-.66-.272.924.924 0 0 1 0-1.31.94.94 0 0 1 .66-.272h2.171c.248 0 .485.098.66.271s.274.41.274.656zM9.099 5.86a1.93 1.93 0 0 0-1.357.559 1.9 1.9 0 0 0-.562 1.348v13.327c0 .506.202.991.562 1.349.36.357.848.558 1.358.558h10.334a2.58 2.58 0 0 0 1.815-.747A2.55 2.55 0 0 0 22 20.451V10.085a1.9 1.9 0 0 0-.562-1.348l-2.336-2.32a1.93 1.93 0 0 0-1.357-.558z" clip-rule="evenodd"/></g><defs><clipPath id="a"><path fill="currentColor" d="M0 0h24v24H0z"/></clipPath></defs></svg>
